X: 19
T:Martin Mulvihill's March
R:March
Z:added by Alf 
M:2/4
L:1/8
Q:1/4=120
K:G
d3/2c/2|BA Bc|dG Bd|eG ce|d2 g3/2f/2|ef ge|dB GB|A2 A3/2B/2|A2 d3/2c/2|
BA Bc|dG Bd|eG ce|d2 g3/2f/2|(3efg dB|cA FA|G2 G3/2F/2 G2:|
e>f|gd Bd|ec ce|d3/2e/2 dB|G3B|Ad fa|ge ^cA|dc/2d/2 ed|cA FD|
BA Bc|dG Bd|eG ce|d2 g3/2f/2|(3efg dB|cA FA|G2 G3/2F/2|G2:|
